X: 13
T:Donna's 
R:
C:Phil Cunningham
Z:added by Alf 
M:3/4
L:1/8
K:A
d cB|A3B AF|D2 DF ED|E2 ec BA|B3c BA|
FA2B AF|D2 DF ED|E2 F2 A2|[1 E3d cB:|[2 A2 c2 e2||
a6|g6|f3g fe|ce3 ce|
f2 fg fe|c2 ec BA|BA F2 c2|B3d cB|
A3B AF|D2 DF ED|E2 ec BA|B3c BA|
FA2B AF|D2 DF ED|E2 F2 A2|A6|]
